packages/components/src/telekom/icons/home/unable-to-connect-to-router/default.svg

<?xml version="1.0" encoding="UTF-8"?>
<svg width="24px" height="24px" viewBox="0 0 24 24" version="1.1" xmlns="http://www.w3.org/2000/svg" xmlns:xlink="http://www.w3.org/1999/xlink">
    <title>/svg/icon/home/unable-to-connect-to-router/default</title>
    <g id="icon/home/unable-to-connect-to-router/default" stroke="none" stroke-width="1" fill="none" fill-rule="evenodd">
        <path d="M17.75,11.4999 C21.202,11.4999 24,14.2989 24,17.7499 C24,21.2019 21.202,23.9999 17.75,23.9999 C14.298,23.9999 11.5,21.2019 11.5,17.7499 C11.5,14.2989 14.298,11.4999 17.75,11.4999 Z M6.8,5.9999 L8.541,7.4999 L4.5,7.4999 C3.72164706,7.4999 3.07970934,8.09605225 3.00688052,8.85566308 L3,8.9999 L3,18.9999 C3,19.7782529 3.59615225,20.4201907 4.35576308,20.4930195 L4.5,20.4999 L10.511,20.4999 C10.6726,20.9239 10.86684,21.33062 11.095256,21.715452 L11.273,21.9999 L4.5,21.9999 C2.90217857,21.9999 1.59632908,20.7511156 1.50509216,19.1761873 L1.5,18.9999 L1.5,8.9999 C1.5,7.40207857 2.74878444,6.09622908 4.32371269,6.00499216 L4.5,5.9999 L6.8,5.9999 Z M15.22,15.2199 C14.927,15.5129 14.927,15.9869 15.22,16.2799 L16.69,17.7499 L15.22,19.2199 C14.927,19.5129 14.927,19.9869 15.22,20.2799 C15.367,20.4269 15.558,20.4999 15.75,20.4999 C15.942,20.4999 16.134,20.4269 16.281,20.2799 L17.75,18.8109 L19.22,20.2799 C19.367,20.4269 19.558,20.4999 19.75,20.4999 C19.942,20.4999 20.134,20.4269 20.281,20.2799 C20.574,19.9869 20.574,19.5129 20.281,19.2199 L18.811,17.7499 L20.281,16.2799 C20.574,15.9869 20.574,15.5129 20.281,15.2199 C19.988,14.9269 19.513,14.9269 19.22,15.2199 L17.75,16.6889 L16.281,15.2199 C15.988,14.9269 15.513,14.9269 15.22,15.2199 Z M19.5,5.9999 C21.0978214,5.9999 22.4036709,7.24868444 22.4949078,8.82361269 L22.5,8.9999 L22.5,11.6359 C22.1312,11.3479 21.73616,11.09446 21.317952,10.877628 L21,10.7219 L21,8.9999 C21,8.22154706 20.4038478,7.57960934 19.6442369,7.50678052 L19.5,7.4999 L15.458,7.4999 L17.2,5.9999 L19.5,5.9999 Z M12,6.4999 C12.552,6.4999 13,6.9479 13,7.4999 C13,7.5519 12.993,7.6019 12.985,7.6509 L12,8.4999 L11.015,7.6509 C11.007,7.6019 11,7.5519 11,7.4999 C11,6.9479 11.448,6.4999 12,6.4999 Z M12,3.4999 C13.404,3.4999 14.6392687,4.22867562 15.3520939,5.32656278 L15.466,5.5129 L14.298,6.5199 C13.916,5.6269 13.031,4.9999 12,4.9999 C11.0296471,4.9999 10.187737,5.55530484 9.77440423,6.36514649 L9.702,6.5199 L8.534,5.5129 C9.224,4.3119 10.518,3.4999 12,3.4999 Z M12,0.4999 C14.29248,0.4999 16.3287552,1.6095064 17.6062956,3.31822653 L17.762,3.5349 L16.617,4.5209 C15.636,3.0069 13.935,1.9999 12,1.9999 C10.1491304,1.9999 8.51235539,2.92123837 7.51499975,4.32633807 L7.383,4.5209 L6.238,3.5349 C7.501,1.7039 9.612,0.4999 12,0.4999 Z" id="Icon" fill="#000000"></path>
    </g>
</svg>

<svg width="24" height="24" xmlns="http://www.w3.org/2000/svg"><path d="M17.75 11.5a6.25 6.25 0 110 12.5 6.25 6.25 0 010-12.5zM6.8 6l1.741 1.5H4.5c-.778 0-1.42.596-1.493 1.356L3 9v10c0 .778.596 1.42 1.356 1.493l.144.007h6.011c.162.424.356.83.584 1.215l.178.285H4.5a3 3 0 01-2.995-2.824L1.5 19V9a3 3 0 012.824-2.995L4.5 6h2.3zm8.42 9.22a.749.749 0 000 1.06l1.47 1.47-1.47 1.47a.749.749 0 101.061 1.06l1.469-1.47 1.47 1.47a.746.746 0 001.061 0 .749.749 0 000-1.06l-1.47-1.47 1.47-1.47a.749.749 0 10-1.061-1.06l-1.47 1.469-1.469-1.47a.75.75 0 00-1.061 0zM19.5 6a3 3 0 012.995 2.824L22.5 9v2.636a7.61 7.61 0 00-1.182-.758L21 10.722V9c0-.778-.596-1.42-1.356-1.493L19.5 7.5h-4.042L17.2 6h2.3zm-7.5.5a1 1 0 011 1 .931.931 0 01-.015.15L12 8.5l-.985-.85A.931.931 0 0111 7.5a1 1 0 011-1zm0-3c1.404 0 2.64.729 3.352 1.827l.114.186-1.168 1.007A2.5 2.5 0 0012 5a2.5 2.5 0 00-2.226 1.365l-.072.155-1.168-1.007A3.997 3.997 0 0112 3.5zm0-3a6.99 6.99 0 015.606 2.818l.156.217-1.145.986A5.498 5.498 0 0012 2c-1.85 0-3.488.921-4.485 2.326l-.132.195-1.145-.986A6.993 6.993 0 0112 .5z" fill-rule="evenodd"/></svg>
